dist/img/svg/briefcase.svg

<svg width="32" height="32" viewBox="0 0 32 32" fill="none" xmlns="http://www.w3.org/2000/svg">
<path d="M10.6677 29.3333H21.3344C26.6944 29.3333 27.6544 27.1867 27.9344 24.5733L28.9344 13.9067C29.2944 10.6533 28.3611 8 22.6677 8H9.3344C3.64107 8 2.70774 10.6533 3.06774 13.9067L4.06774 24.5733C4.34774 27.1867 5.30774 29.3333 10.6677 29.3333Z" stroke="currentColor" stroke-width="1.5" stroke-miterlimit="10" stroke-linecap="round" stroke-linejoin="round"/>
<path d="M10.668 7.99996V6.93329C10.668 4.57329 10.668 2.66663 14.9346 2.66663H17.068C21.3346 2.66663 21.3346 4.57329 21.3346 6.93329V7.99996" stroke="currentColor" stroke-width="1.5" stroke-miterlimit="10" stroke-linecap="round" stroke-linejoin="round"/>
<path d="M18.6654 17.3333V18.6667C18.6654 18.68 18.6654 18.68 18.6654 18.6933C18.6654 20.1467 18.652 21.3333 15.9987 21.3333C13.3587 21.3333 13.332 20.16 13.332 18.7067V17.3333C13.332 16 13.332 16 14.6654 16H17.332C18.6654 16 18.6654 16 18.6654 17.3333Z" stroke="currentColor" stroke-width="1.5" stroke-miterlimit="10" stroke-linecap="round" stroke-linejoin="round"/>
<path d="M28.868 14.6666C25.788 16.9066 22.268 18.24 18.668 18.6933" stroke="currentColor" stroke-width="1.5" stroke-miterlimit="10" stroke-linecap="round" stroke-linejoin="round"/>
<path d="M3.49219 15.0267C6.49219 17.0801 9.87885 18.3201 13.3322 18.7067" stroke="currentColor" stroke-width="1.5" stroke-miterlimit="10" stroke-linecap="round" stroke-linejoin="round"/>
</svg>

<svg width="32" height="32" viewBox="0 0 32 32" fill="none" xmlns="http://www.w3.org/2000/svg"><path d="M10.668 29.333h10.666c5.36 0 6.32-2.146 6.6-4.76l1-10.666C29.294 10.653 28.361 8 22.668 8H9.334c-5.693 0-6.626 2.653-6.266 5.907l1 10.666c.28 2.614 1.24 4.76 6.6 4.76zm0-21.333V6.933c0-2.36 0-4.266 4.267-4.266h2.133c4.267 0 4.267 1.906 4.267 4.266V8" stroke="currentColor" stroke-width="1.5" stroke-miterlimit="10" stroke-linecap="round" stroke-linejoin="round"/><path d="M18.665 17.333v1.36c0 1.454-.013 2.64-2.666 2.64-2.64 0-2.667-1.173-2.667-2.626v-1.374c0-1.333 0-1.333 1.333-1.333h2.667c1.333 0 1.333 0 1.333 1.333zm10.203-2.666a21.979 21.979 0 01-10.2 4.026M3.492 15.027a21.72 21.72 0 009.84 3.68" stroke="currentColor" stroke-width="1.5" stroke-miterlimit="10" stroke-linecap="round" stroke-linejoin="round"/></svg>
